X:81
T:Rolling in the Ryegrass
M:4/4
L:1/8
R:reel
K:Dmaj
|: A2AF DFAF | G2BG dGBG | ABAF DFAF |1 GBAF EFDF :|2 GBAF E2D2 ||
|: ABde f3d | g3e fedB | ABde f2fg | afdf e2dB :|
